X: 20526
T: John McEvoy's
R: reel
M: 4/4
K: Gmajor
BGGF GFDE|=FEFD A,B,CD|G2 GA BABc|dgfd c2 dc|
BGGF GFDE|=FEFD A,B,CA,|G,A,B,C DG G2|BdcA G4:|
dg g2 dBGB|c=f f2 cAFA|GABc dg g2|fgaf g2 ga|
bgag gfdc|BdcA BGFA|GABc dg g2|fdcA G4:|

